X: 1
T: Popcorn Behaviour
R: reel
M: 4/4
L: 1/8
K: Amin
e/2e/2g|:a2 e=f ecAc|BABc BGEG|AEAc AE (3ABc|B/2B/2A Bc B2 e/2e/2g|
a2 ef ecAc|BABc BGEG|DFAc dcAF|1ECDB, A,2 e/2e/2g:|2ECDB, A,B,CD||
|:EA,A,E FA,A,F|EA,A,E DA,A,D|A,B,CD EDEA|GECD EFED|
EA,A,E FA,A,F |^FA,A,^F =FA,A,F|DFAc dcAF|1ECDB, A,B,CD:|2ECDB, A,2 e/2e/2g||


Tune 1735	Setting 15163

